public/resource/img/game/feedback/star.svg

<svg xmlns="http://www.w3.org/2000/svg" stroke-width="0" viewBox="0 0 32 32"><path fill="#ffc00a" d="M27.636 20.364L32 16l-4.364-4.364V4.364h-7.272L16 0l-4.364 4.364H4.364v7.272L0 16l4.364 4.364v7.272h7.272L16 32l4.364-4.364h7.272z"/></svg>

<svg id="icon" viewBox="0 0 32 32" focusable="false" stroke="none" stroke-width="0" xmlns="http://www.w3.org/2000/svg" xmlns:xlink="http://www.w3.org/1999/xlink"><path d="M27.636 20.364L32 16 27.636 11.636 27.636 4.364 20.364 4.364 16 0 11.636 4.364 4.364 4.364 4.364 11.636 0 16 4.364 20.364 4.364 27.636 11.636 27.636 16 32 20.364 27.636 27.636 27.636z" style="fill: rgb(255, 192, 10);"></path></svg>
